X: 139
T:3/8 Bourree (Antwerp)
M:3/8
L:1/8
S:Antwerp 21/3/98
R:Bourree
Z:Steve Mansfield
K:Dm
B/c/d c/d/ | ed/e/f |  e f/e/d/c/ | BA2 | B/c/d c/d/ | ed/e/f |
e g/f/e/c/ |1d3 :|2 d2A |: B B/A/B/c/ | d/e/ d/c/ B/A/ | B B/c/d/f/ |
ec2 | B B/A/B/c/ | d/e/ f/e/ d/c/ | Bd/c/B | A3 :|
<end>
<start>
